src/ui/images/mark/articulation/downbow.svg

<?xml version="1.0" encoding="UTF-8" standalone="no"?>
<svg
   xmlns:dc="http://purl.org/dc/elements/1.1/"
   xmlns:cc="http://web.resource.org/cc/"
   xmlns:rdf="http://www.w3.org/1999/02/22-rdf-syntax-ns#"
   xmlns:svg="http://www.w3.org/2000/svg"
   xmlns="http://www.w3.org/2000/svg"
   xmlns:xlink="http://www.w3.org/1999/xlink"
   xmlns:sodipodi="http://sodipodi.sourceforge.net/DTD/sodipodi-0.dtd"
   xmlns:inkscape="http://www.inkscape.org/namespaces/inkscape"
   viewBox="0 -200 1000 1000"
   id="svg27169"
   sodipodi:version="0.32"
   inkscape:version="0.45.1"
   width="128"
   height="128"
   sodipodi:docname="downbow.svg"
   sodipodi:docbase="/home/matevz/canorus/trunk/src/ui/images/mark/articulation"
   inkscape:export-filename="/home/matevz/apps/canorus/branches/matevz/src/fonts/n2.png"
   inkscape:export-xdpi="120.95"
   inkscape:export-ydpi="120.95"
   inkscape:output_extension="org.inkscape.output.svg.inkscape"
   version="1.0">
  <metadata
     id="metadata27178">
    <rdf:RDF>
      <cc:Work
         rdf:about="">
        <dc:format>image/svg+xml</dc:format>
        <dc:type
           rdf:resource="http://purl.org/dc/dcmitype/StillImage" />
      </cc:Work>
    </rdf:RDF>
  </metadata>
  <defs
     id="defs27176">
    <linearGradient
       id="linearGradient33317">
      <stop
         style="stop-color:#000000;stop-opacity:1;"
         offset="0"
         id="stop33319" />
      <stop
         style="stop-color:#646464;stop-opacity:1;"
         offset="1"
         id="stop33321" />
    </linearGradient>
    <linearGradient
       inkscape:collect="always"
       xlink:href="#linearGradient33317"
       id="linearGradient33323"
       x1="49.270287"
       y1="920.35596"
       x2="110.55885"
       y2="920.35596"
       gradientUnits="userSpaceOnUse" />
    <linearGradient
       inkscape:collect="always"
       xlink:href="#linearGradient33317"
       id="linearGradient8122"
       gradientUnits="userSpaceOnUse"
       x1="49.270287"
       y1="920.35596"
       x2="110.55885"
       y2="920.35596" />
    <linearGradient
       inkscape:collect="always"
       xlink:href="#linearGradient33317"
       id="linearGradient19732"
       gradientUnits="userSpaceOnUse"
       x1="49.270287"
       y1="920.35596"
       x2="110.55885"
       y2="920.35596"
       gradientTransform="matrix(5.6766826,0,0,5.6766826,-206.90519,-4941.8885)" />
    <linearGradient
       inkscape:collect="always"
       xlink:href="#linearGradient33317"
       id="linearGradient20714"
       x1="483.75861"
       y1="336.54208"
       x2="900.97968"
       y2="336.54208"
       gradientUnits="userSpaceOnUse"
       gradientTransform="matrix(0.7657372,0,0,0.7657372,175.82664,67.12053)" />
    <linearGradient
       inkscape:collect="always"
       xlink:href="#linearGradient33317"
       id="linearGradient21697"
       gradientUnits="userSpaceOnUse"
       gradientTransform="matrix(0.7657372,0,0,0.7657372,175.82664,67.12053)"
       x1="483.75861"
       y1="336.54208"
       x2="900.97968"
       y2="336.54208" />
    <linearGradient
       inkscape:collect="always"
       xlink:href="#linearGradient33317"
       id="linearGradient21703"
       gradientUnits="userSpaceOnUse"
       gradientTransform="matrix(5.6766826,0,0,5.6766826,-206.90519,-4941.8885)"
       x1="49.270287"
       y1="920.35596"
       x2="110.55885"
       y2="920.35596" />
    <linearGradient
       inkscape:collect="always"
       xlink:href="#linearGradient33317"
       id="linearGradient21707"
       gradientUnits="userSpaceOnUse"
       gradientTransform="matrix(0.5805313,0,0,0.5805313,-202.92606,52.853836)"
       x1="483.75861"
       y1="336.54208"
       x2="900.97968"
       y2="336.54208" />
    <linearGradient
       inkscape:collect="always"
       xlink:href="#linearGradient33317"
       id="linearGradient23661"
       gradientUnits="userSpaceOnUse"
       gradientTransform="matrix(0.5805313,0,0,0.5805313,-202.92606,52.853836)"
       x1="483.75861"
       y1="336.54208"
       x2="900.97968"
       y2="336.54208" />
    <linearGradient
       inkscape:collect="always"
       xlink:href="#linearGradient33317"
       id="linearGradient2238"
       gradientUnits="userSpaceOnUse"
       gradientTransform="matrix(0.5805313,0,0,0.5805313,-216.73483,128.73884)"
       x1="483.75861"
       y1="336.54208"
       x2="2008.1578"
       y2="336.54208" />
    <linearGradient
       inkscape:collect="always"
       xlink:href="#linearGradient33317"
       id="linearGradient2248"
       gradientUnits="userSpaceOnUse"
       gradientTransform="matrix(0.5805313,0,0,0.5805313,-216.73483,128.73884)"
       x1="483.75861"
       y1="336.54208"
       x2="2008.1578"
       y2="336.54208" />
    <linearGradient
       inkscape:collect="always"
       xlink:href="#linearGradient33317"
       id="linearGradient3229"
       x1="-8.1343279"
       y1="250"
       x2="799"
       y2="250"
       gradientUnits="userSpaceOnUse" />
    <linearGradient
       inkscape:collect="always"
       xlink:href="#linearGradient33317"
       id="linearGradient4216"
       gradientUnits="userSpaceOnUse"
       x1="-8.1343279"
       y1="250"
       x2="799"
       y2="250" />
    <linearGradient
       inkscape:collect="always"
       xlink:href="#linearGradient33317"
       id="linearGradient5390"
       x1="-273"
       y1="0.31521606"
       x2="273"
       y2="0.31521606"
       gradientUnits="userSpaceOnUse" />
    <linearGradient
       inkscape:collect="always"
       xlink:href="#linearGradient33317"
       id="linearGradient6377"
       gradientUnits="userSpaceOnUse"
       x1="-273"
       y1="0.31521606"
       x2="273"
       y2="0.31521606" />
    <linearGradient
       inkscape:collect="always"
       xlink:href="#linearGradient33317"
       id="linearGradient7410"
       x1="37.855946"
       y1="19.808781"
       x2="742.65802"
       y2="19.808781"
       gradientUnits="userSpaceOnUse" />
    <linearGradient
       inkscape:collect="always"
       xlink:href="#linearGradient33317"
       id="linearGradient8393"
       gradientUnits="userSpaceOnUse"
       x1="37.855946"
       y1="19.808781"
       x2="742.65802"
       y2="19.808781" />
    <linearGradient
       inkscape:collect="always"
       xlink:href="#linearGradient33317"
       id="linearGradient2212"
       gradientUnits="userSpaceOnUse"
       x1="37.855946"
       y1="19.808781"
       x2="742.65802"
       y2="19.808781" />
    <linearGradient
       inkscape:collect="always"
       xlink:href="#linearGradient33317"
       id="linearGradient3231"
       x1="-225.0625"
       y1="0"
       x2="225"
       y2="0"
       gradientUnits="userSpaceOnUse" />
    <linearGradient
       inkscape:collect="always"
       xlink:href="#linearGradient33317"
       id="linearGradient4218"
       gradientUnits="userSpaceOnUse"
       x1="-225.0625"
       y1="0"
       x2="225"
       y2="0" />
    <linearGradient
       inkscape:collect="always"
       xlink:href="#linearGradient33317"
       id="linearGradient4220"
       gradientUnits="userSpaceOnUse"
       x1="-225.0625"
       y1="0"
       x2="225"
       y2="0" />
    <linearGradient
       inkscape:collect="always"
       xlink:href="#linearGradient33317"
       id="linearGradient5286"
       x1="-188"
       y1="166.5"
       x2="188"
       y2="166.5"
       gradientUnits="userSpaceOnUse" />
    <linearGradient
       inkscape:collect="always"
       xlink:href="#linearGradient33317"
       id="linearGradient5288"
       gradientUnits="userSpaceOnUse"
       x1="-188"
       y1="166.5"
       x2="188"
       y2="166.5" />
    <linearGradient
       inkscape:collect="always"
       xlink:href="#linearGradient33317"
       id="linearGradient6273"
       gradientUnits="userSpaceOnUse"
       x1="-188"
       y1="166.5"
       x2="188"
       y2="166.5" />
    <linearGradient
       inkscape:collect="always"
       xlink:href="#linearGradient33317"
       id="linearGradient6275"
       gradientUnits="userSpaceOnUse"
       x1="-188"
       y1="166.5"
       x2="188"
       y2="166.5" />
  </defs>
  <sodipodi:namedview
     inkscape:window-height="979"
     inkscape:window-width="1400"
     inkscape:pageshadow="2"
     inkscape:pageopacity="0.0"
     borderopacity="1.0"
     bordercolor="#666666"
     pagecolor="#ffffff"
     id="base"
     inkscape:zoom="2.8284271"
     inkscape:cx="80.009538"
     inkscape:cy="43.897201"
     inkscape:window-x="0"
     inkscape:window-y="0"
     inkscape:current-layer="svg27169"
     width="128px"
     height="128px" />
  <g
     id="g6267"
     transform="matrix(0.8531226,0,0,0.8531226,44.028754,-181.02242)">
    <g
       style="fill:#000000;fill-opacity:0.39215686"
       id="g5290"
       transform="matrix(1.9491867,0,0,-1.9491867,544.14073,898.0444)">
      <path
         style="fill:#000000;fill-opacity:0.39215686"
         id="path5292"
         d="M -180,331 C -178,332.33333 -117.66667,333 1,333 C 119,333 179,332.33333 181,331 C 183,329.66667 184.66667,328 186,326 C 187.33333,324 188,271.66667 188,169 C 188,67 187.33333,14.666667 186,12 C 182.66667,4.6666667 177,0.83333333 169,0.5 C 161,0.16666667 155.33333,4 152,12 C 150.66667,14 150,46 150,108 L 150,200 L 0,200 L -150,200 L -150,108 C -150,58.666667 -150.16667,30.166667 -150.5,22.5 C -150.83333,14.833333 -152.33333,9.3333333 -155,6 C -159,2 -163.66667,0 -169,0 C -179,0 -185,4.6666667 -187,14 C -187.66667,15.333333 -188,67.666667 -188,171 C -188,271.66667 -187,323.66667 -185,327 C -183,329 -181.33333,330.33333 -180,331 z " />
    </g>
    <g
       style="fill:url(#linearGradient6273);fill-opacity:1"
       id="g4300"
       transform="matrix(1.9491865,0,0,-1.9491865,524.80582,878.70948)">
      <path
         style="fill:url(#linearGradient6275);fill-opacity:1"
         id="path4302"
         d="M -180,331 C -178,332.33333 -117.66667,333 1,333 C 119,333 179,332.33333 181,331 C 183,329.66667 184.66667,328 186,326 C 187.33333,324 188,271.66667 188,169 C 188,67 187.33333,14.666667 186,12 C 182.66667,4.6666667 177,0.83333333 169,0.5 C 161,0.16666667 155.33333,4 152,12 C 150.66667,14 150,46 150,108 L 150,200 L 0,200 L -150,200 L -150,108 C -150,58.666667 -150.16667,30.166667 -150.5,22.5 C -150.83333,14.833333 -152.33333,9.3333333 -155,6 C -159,2 -163.66667,0 -169,0 C -179,0 -185,4.6666667 -187,14 C -187.66667,15.333333 -188,67.666667 -188,171 C -188,271.66667 -187,323.66667 -185,327 C -183,329 -181.33333,330.33333 -180,331 z " />
    </g>
  </g>
</svg>

<?xml version="1.0" standalone="no"?>
<!DOCTYPE svg PUBLIC "-//W3C//DTD SVG 1.1//EN" "http://www.w3.org/Graphics/SVG/1.1/DTD/svg11.dtd" >
<svg viewBox="-188 -200 1000 1000">
  <g transform="matrix(1 0 0 -1 0 800)">
   <path fill="currentColor"
d="M-180 331q3 2 181 2q177 0 180 -2t5 -5t2 -157q0 -153 -2 -157q-5 -11 -17 -11.5t-17 11.5q-2 3 -2 96v92h-150h-150v-92q0 -74 -0.5 -85.5t-4.5 -16.5q-6 -6 -14 -6q-15 0 -18 14q-1 2 -1 157q0 151 3 156q3 3 5 4z" />
  </g>

</svg>
